X:1
T:Westminster New, CM
T:Westminster New, CM
T:James Nares, 1762
T:Public Domain Courtesy of the Cyber Hymnal™
C:James Nares, 1762
Z:Public Domain
Z:Courtesy of the Cyber Hymnal™
%%score ( 1 2 ) ( 3 4 )
L:1/8
Q:1/4=115
M:3/4
K:G
V:1 treble 
V:2 treble 
V:3 bass 
V:4 bass 
V:1
 [DG]2 | [GB]4 [GB]2 | [GB]2 [FA]2 [GB]2 | (c2 d2) [Ge]2 | (e2 d2) [Gc]2 | (B2 A2) G2 | %6
 (G2 F2) [DG]2 | (B2 A2) [=Fd]2 | (d2 c2) [EB]2 | (cd) z [GB]2 x | (B2 E2) [EA]2 | (G2 F2) [FA]2 | %12
 (B2 c2) [=Fd]2 | [Ee]2 [GB]2 [FA]2 | G4 |] %15
V:2
 x2 | x6 | x6 | G4 x2 | G4 x2 | D4 (B,^C) | D4 x2 | D4 x2 | E4 x2 | E3 (c2 F) | E4 x2 | D4 x2 | %12
 G4 x2 | x6 | G4 |] %15
V:3
 [G,B,]2 | [G,D]4 [B,,D]2 | [D,D]4 D2 | [E,C]2 [D,B,]2 [C,C]2 | (C2 B,2) [E,C]2 | D4 [E,G,]2 | %6
 [D,A,]4 [G,,B,]2 | (G,2 F,2) [B,,B,]2 | (B,2 A,2) [E,^G,]2 | (A,B,) C2 [B,,D]2 | E4 [A,,C]2 | %11
 B,2 A,2 [D,D]2 | D2 [E,C]2 [D,B,]2 | (G,A,) [D,B,]2 [D,C]2 | [G,,B,]4 |] %15
V:4
 x2 | x6 | x4 (G,=F,) | x6 | G,4 x2 | (G,2 F,2) x2 | x6 | D,4 x2 | E,4 x2 | E,4 x2 | (C,3 B,,) x2 | %11
 B,2 A,2 x2 | (G,=F,) x4 | C,2 x4 | x4 |] %15

